styles/1/Numix/64/places/yellow-folder-steam.svg

<?xml version="1.0" encoding="UTF-8" standalone="no"?>
<!-- Created with Inkscape (http://www.inkscape.org/) -->

<svg
   xmlns:dc="http://purl.org/dc/elements/1.1/"
   xmlns:cc="http://creativecommons.org/ns#"
   xmlns:rdf="http://www.w3.org/1999/02/22-rdf-syntax-ns#"
   xmlns:svg="http://www.w3.org/2000/svg"
   xmlns="http://www.w3.org/2000/svg"
   xmlns:sodipodi="http://sodipodi.sourceforge.net/DTD/sodipodi-0.dtd"
   xmlns:inkscape="http://www.inkscape.org/namespaces/inkscape"
   width="64"
   height="64"
   id="svg2"
   version="1.1"
   inkscape:version="0.91 r"
   sodipodi:docname="yellow-folder-steam.svg"
   inkscape:export-filename="/media/Data/Main/Visuals/Icons/Numix/Desktop/repos/numix-wiki/Gjorgi/Numix-folders/48/New/folder-144.png"
   inkscape:export-xdpi="270"
   inkscape:export-ydpi="270">
  <defs
     id="defs4" />
  <sodipodi:namedview
     id="base"
     pagecolor="#ffffff"
     bordercolor="#666666"
     borderopacity="1.0"
     inkscape:pageopacity="0.0"
     inkscape:pageshadow="2"
     inkscape:zoom="14.921471"
     inkscape:cx="30.767861"
     inkscape:cy="28.073195"
     inkscape:document-units="px"
     inkscape:current-layer="layer1"
     showgrid="true"
     inkscape:window-width="1280"
     inkscape:window-height="998"
     inkscape:window-x="0"
     inkscape:window-y="0"
     inkscape:window-maximized="1"
     showguides="true"
     inkscape:guide-bbox="true">
    <inkscape:grid
       type="xygrid"
       id="grid2985"
       empspacing="5"
       visible="true"
       enabled="true"
       snapvisiblegridlinesonly="true" />
  </sodipodi:namedview>
  <metadata
     id="metadata7">
    <rdf:RDF>
      <cc:Work
         rdf:about="">
        <dc:format>image/svg+xml</dc:format>
        <dc:type
           rdf:resource="http://purl.org/dc/dcmitype/StillImage" />
        <dc:title />
      </cc:Work>
    </rdf:RDF>
  </metadata>
  <g
     inkscape:label="Layer 1"
     inkscape:groupmode="layer"
     id="layer1"
     transform="translate(0,-988.3622)">
    <path
       style="font-size:medium;font-style:normal;font-variant:normal;font-weight:normal;font-stretch:normal;text-indent:0;text-align:start;text-decoration:none;line-height:normal;letter-spacing:normal;word-spacing:normal;text-transform:none;direction:ltr;block-progression:tb;writing-mode:lr-tb;text-anchor:start;baseline-shift:baseline;color:#000000;fill:#ffca28;fill-opacity:1;fill-rule:nonzero;stroke:none;stroke-width:2.28612947;marker:none;visibility:visible;display:inline;overflow:visible;enable-background:accumulate;font-family:Sans;-inkscape-font-specification:Sans"
       d="M 6.0625 10 C 4.933085 10.1109 3.981588 11.17777 4 12.3125 L 4 51.6875 C 3.986 52.9021 5.097925 54.0139 6.3125 54 L 57.6875 54 C 58.902076 54.014 60.013966 52.9021 60 51.6875 L 60 16.3125 C 60.014 15.0979 58.902076 13.9861 57.6875 14 L 38 14 L 38 12.3125 C 38.01375 11.11867 36.943717 10.019 35.75 10 L 6.3125 10 C 6.22925 10 6.14575 9.9999 6.0625 10 z M 39.75 22 C 43.028002 22 45.71875 24.73235 45.71875 28.09375 C 45.71875 30.59145 44.197264 32.7373 42.09375 33.6875 C 42.07144 33.6955 42.05368 33.726 42.03125 33.75 L 38.90625 39.46875 L 38.84375 39.46875 C 39.402496 40.20845 39.75 41.1234 39.75 42.125 C 39.75 44.5292 37.843377 46.46875 35.5 46.46875 C 33.198092 46.46875 31.28025 44.56915 31.21875 42.21875 L 25.28125 39.46875 C 24.570163 40.01335 23.667816 40.375 22.71875 40.375 C 20.378518 40.375 18.4375 38.37315 18.4375 35.96875 C 18.4375 33.56785 20.379566 31.59375 22.71875 31.59375 C 25.062124 31.59375 26.96875 33.56905 26.96875 35.96875 L 32.875 38.6875 C 33.382301 38.2814 34.006204 37.9513 34.65625 37.8125 L 34.65625 31.21875 C 34.128495 30.30595 33.78125 29.22295 33.78125 28.09375 C 33.78125 24.72895 36.467804 22 39.75 22 z M 39.75 24.03125 C 37.54194 24.03125 35.8125 25.83305 35.8125 28.09375 C 35.8125 30.35865 37.54194 32.15625 39.75 32.15625 C 41.953864 32.15625 43.6875 30.35865 43.6875 28.09375 C 43.6875 25.83305 41.954914 24.03125 39.75 24.03125 z M 39.75 25.5 C 41.163999 25.5 42.3125 26.64235 42.3125 28.09375 C 42.3125 29.54175 41.163999 30.6875 39.75 30.6875 C 38.340196 30.6875 37.1875 29.54035 37.1875 28.09375 C 37.1875 26.64145 38.340196 25.5 39.75 25.5 z M 22.71875 33.34375 C 21.014186 33.34375 20.15625 34.22115 20.15625 35.96875 C 20.15625 37.72045 21.014186 38.625 22.71875 38.625 C 22.93221 38.625 23.094494 38.5935 23.28125 38.5625 L 22.1875 38 C 21.220341 37.5824 20.746106 36.4295 21.15625 35.4375 C 21.56639 34.444 22.689109 34.0157 23.65625 34.4375 L 25.15625 35.125 C 24.903707 33.9522 24.11842 33.34375 22.71875 33.34375 z M 35.5 39.1875 C 35.124683 39.1875 34.764103 39.27145 34.4375 39.40625 L 36.28125 40.25 C 37.248391 40.6673 37.722641 41.8208 37.3125 42.8125 C 36.902357 43.8087 35.779639 44.2966 34.8125 43.875 L 32.78125 42.96875 C 33.135273 44.15885 34.218874 45 35.5 45 C 37.077633 45 38.3125 43.7422 38.3125 42.125 C 38.3125 40.5077 37.077633 39.1875 35.5 39.1875 z "
       transform="translate(0,988.3622)"
       id="path3912" />
  </g>
</svg>

<!-- Created with Inkscape (http://www.inkscape.org/) -->
<svg xmlns="http://www.w3.org/2000/svg" viewBox="0 0 64 64">
 <g transform="translate(0,-988.3622)">
  <path d="m 6.06 10 c -1.129 0.111 -2.081 1.178 -2.063 2.313 l 0 39.38 c -0.014 1.215 1.098 2.326 2.313 2.313 l 51.38 0 c 1.215 0.014 2.326 -1.098 2.313 -2.313 l 0 -35.37 c 0.014 -1.215 -1.098 -2.326 -2.313 -2.313 l -19.688 0 l 0 -1.688 c 0.014 -1.194 -1.056 -2.294 -2.25 -2.313 l -29.438 0 c -0.083 0 -0.167 0 -0.25 0 z m 33.688 12 c 3.278 0 5.969 2.732 5.969 6.094 c 0 2.498 -1.521 4.644 -3.625 5.594 c -0.022 0.008 -0.04 0.038 -0.063 0.063 l -3.125 5.719 l -0.063 0 c 0.559 0.74 0.906 1.655 0.906 2.656 c 0 2.404 -1.907 4.344 -4.25 4.344 c -2.302 0 -4.22 -1.9 -4.281 -4.25 l -5.938 -2.75 c -0.711 0.545 -1.613 0.906 -2.563 0.906 c -2.34 0 -4.281 -2 -4.281 -4.406 c 0 -2.401 1.942 -4.375 4.281 -4.375 c 2.343 0 4.25 1.975 4.25 4.375 l 5.906 2.719 c 0.507 -0.406 1.131 -0.736 1.781 -0.875 l 0 -6.594 c -0.528 -0.913 -0.875 -1.996 -0.875 -3.125 c 0 -3.365 2.687 -6.094 5.969 -6.094 z m 0 2.031 c -2.208 0 -3.938 1.802 -3.938 4.063 c 0 2.265 1.729 4.063 3.938 4.063 c 2.204 0 3.938 -1.798 3.938 -4.063 c 0 -2.261 -1.733 -4.063 -3.938 -4.063 z m 0 1.469 c 1.414 0 2.563 1.142 2.563 2.594 c 0 1.448 -1.149 2.594 -2.563 2.594 c -1.41 0 -2.563 -1.147 -2.563 -2.594 c 0 -1.452 1.153 -2.594 2.563 -2.594 z m -17.03 7.844 c -1.705 0 -2.563 0.877 -2.563 2.625 c 0 1.752 0.858 2.656 2.563 2.656 c 0.213 0 0.376 -0.032 0.563 -0.063 l -1.094 -0.563 c -0.967 -0.418 -1.441 -1.571 -1.031 -2.563 c 0.41 -0.993 1.533 -1.422 2.5 -1 l 1.5 0.688 c -0.253 -1.173 -1.038 -1.781 -2.438 -1.781 z m 12.781 5.844 c -0.375 0 -0.736 0.084 -1.063 0.219 l 1.844 0.844 c 0.967 0.417 1.441 1.571 1.031 2.563 c -0.41 0.996 -1.533 1.484 -2.5 1.063 l -2.031 -0.906 c 0.354 1.19 1.438 2.031 2.719 2.031 c 1.578 0 2.813 -1.258 2.813 -2.875 c 0 -1.617 -1.235 -2.938 -2.813 -2.938 z" transform="translate(0,988.3622)" style="visibility:visible;fill:#ffca28;fill-opacity:1;stroke:none;display:inline;color:#000;fill-rule:nonzero"/>
 </g>
</svg>
